Newaita-dark/apps/16/system-search.svg

<?xml version="1.0" encoding="UTF-8"?>
<svg xmlns="http://www.w3.org/2000/svg" xmlns:xlink="http://www.w3.org/1999/xlink" width="16px" height="16px" viewBox="0 0 16 16" version="1.1">
<defs>
<linearGradient id="linear0" gradientUnits="userSpaceOnUse" x1="169.3237" y1="-148.991623" x2="169.3237" y2="115.591713" gradientTransform="matrix(0.031253,0,0,0.031253,0.661822,7.09677)">
<stop offset="0" style="stop-color:rgb(62.352943%,65.882355%,85.490197%);stop-opacity:0.392157;"/>
<stop offset="1" style="stop-color:rgb(0.784314%,46.666667%,74.117649%);stop-opacity:0.392157;"/>
</linearGradient>
<radialGradient id="radial0" gradientUnits="userSpaceOnUse" cx="450.908936" cy="189.579361" fx="450.908936" fy="189.579361" r="21.166656" gradientTransform="matrix(0.0000000870852,-0.0390662,-0.0703192,-0.0000000507693,25.899944,31.797666)">
<stop offset="0" style="stop-color:rgb(0%,0%,0%);stop-opacity:0.313726;"/>
<stop offset="0.222222" style="stop-color:rgb(0%,0%,0%);stop-opacity:0.27451;"/>
<stop offset="1" style="stop-color:rgb(0%,0%,0%);stop-opacity:0;"/>
</radialGradient>
<radialGradient id="radial1" gradientUnits="userSpaceOnUse" cx="450.908936" cy="189.579361" fx="450.908936" fy="189.579361" r="21.166656" gradientTransform="matrix(-0.0000000870852,0.0390662,0.0703192,0.0000000507693,-0.596745,-3.76374)">
<stop offset="0" style="stop-color:rgb(0%,0%,0%);stop-opacity:0.313726;"/>
<stop offset="0.222222" style="stop-color:rgb(0%,0%,0%);stop-opacity:0.27451;"/>
<stop offset="1" style="stop-color:rgb(0%,0%,0%);stop-opacity:0;"/>
</radialGradient>
<radialGradient id="radial2" gradientUnits="userSpaceOnUse" cx="450.908936" cy="189.579361" fx="450.908936" fy="189.579361" r="21.166656" gradientTransform="matrix(-0.0000000870852,-0.0390662,0.0703192,-0.0000000507693,-0.596745,31.797666)">
<stop offset="0" style="stop-color:rgb(0%,0%,0%);stop-opacity:0.313726;"/>
<stop offset="0.222222" style="stop-color:rgb(0%,0%,0%);stop-opacity:0.27451;"/>
<stop offset="1" style="stop-color:rgb(0%,0%,0%);stop-opacity:0;"/>
</radialGradient>
<radialGradient id="radial3" gradientUnits="userSpaceOnUse" cx="450.908936" cy="189.579361" fx="450.908936" fy="189.579361" r="21.166656" gradientTransform="matrix(0.0000000870852,0.0390662,-0.0703192,0.0000000507693,25.899943,-3.76374)">
<stop offset="0" style="stop-color:rgb(0%,0%,0%);stop-opacity:0.313726;"/>
<stop offset="0.222222" style="stop-color:rgb(0%,0%,0%);stop-opacity:0.27451;"/>
<stop offset="1" style="stop-color:rgb(0%,0%,0%);stop-opacity:0;"/>
</radialGradient>
<linearGradient id="linear1" gradientUnits="userSpaceOnUse" x1="255.323059" y1="233.5" x2="255.323044" y2="254.666656" gradientTransform="matrix(0.00668003,0,0,0.031253,8.96147,6.719393)">
<stop offset="0" style="stop-color:rgb(0%,0%,0%);stop-opacity:0.27451;"/>
<stop offset="1" style="stop-color:rgb(0%,0%,0%);stop-opacity:0;"/>
</linearGradient>
<linearGradient id="linear2" gradientUnits="userSpaceOnUse" x1="192.736588" y1="165.093643" x2="477.111359" y2="-145.133408" gradientTransform="matrix(0.0220992,-0.0220992,0.0202576,0.0202576,1.988338,14.931887)">
<stop offset="0" style="stop-color:rgb(25.882354%,25.882354%,25.882354%);stop-opacity:1;"/>
<stop offset="1" style="stop-color:rgb(38.039216%,38.039216%,38.039216%);stop-opacity:1;"/>
</linearGradient>
<linearGradient id="linear3" gradientUnits="userSpaceOnUse" x1="257.64035" y1="224.72374" x2="354.926453" y2="127.43763" gradientTransform="matrix(0.0220992,-0.0220992,0.0220992,0.0220992,1.909049,14.744394)">
<stop offset="0" style="stop-color:rgb(55.29412%,43.137255%,38.82353%);stop-opacity:1;"/>
<stop offset="1" style="stop-color:rgb(63.137257%,53.333336%,49.803922%);stop-opacity:1;"/>
</linearGradient>
</defs>
<g id="surface1">
<path style=" stroke:none;fill-rule:nonzero;fill:url(#linear0);" d="M 6.617188 1.824219 C 9.171875 1.824219 11.246094 3.898438 11.246094 6.457031 C 11.246094 9.011719 9.171875 11.085938 6.617188 11.085938 C 4.058594 11.085938 1.984375 9.011719 1.984375 6.457031 C 1.984375 3.898438 4.058594 1.824219 6.617188 1.824219 Z M 6.617188 1.824219 "/>
<path style=" stroke:none;fill-rule:nonzero;fill:url(#radial0);" d="M 12.734375 14.015625 L 14.058594 14.015625 L 14.058594 13.355469 L 12.734375 13.355469 Z M 12.734375 14.015625 "/>
<path style=" stroke:none;fill-rule:nonzero;fill:url(#radial1);" d="M 12.570312 14.015625 L 11.246094 14.015625 L 11.246094 14.679688 L 12.570312 14.679688 Z M 12.570312 14.015625 "/>
<path style=" stroke:none;fill-rule:nonzero;fill:url(#radial2);" d="M 12.570312 14.015625 L 11.246094 14.015625 L 11.246094 13.355469 L 12.570312 13.355469 Z M 12.570312 14.015625 "/>
<path style=" stroke:none;fill-rule:nonzero;fill:url(#radial3);" d="M 12.734375 14.015625 L 14.058594 14.015625 L 14.058594 14.679688 L 12.734375 14.679688 Z M 12.734375 14.015625 "/>
<path style=" stroke:none;fill-rule:nonzero;fill:url(#linear1);" d="M 12.570312 14.015625 L 12.734375 14.015625 L 12.734375 14.679688 L 12.570312 14.679688 Z M 12.570312 14.015625 "/>
<path style=" stroke:none;fill-rule:nonzero;fill:url(#linear2);" d="M 6.613281 1.449219 C 3.867188 1.449219 1.652344 3.660156 1.652344 6.410156 C 1.652344 9.15625 3.867188 11.371094 6.613281 11.371094 C 7.765625 11.371094 8.820312 10.984375 9.660156 10.332031 L 10.34375 11.015625 L 11.277344 10.082031 L 10.585938 9.390625 C 11.210938 8.5625 11.578125 7.53125 11.578125 6.410156 C 11.578125 3.660156 9.363281 1.449219 6.613281 1.449219 Z M 6.621094 2.441406 C 8.820312 2.441406 10.59375 4.210938 10.59375 6.410156 C 10.59375 8.609375 8.820312 10.378906 6.621094 10.378906 C 4.417969 10.378906 2.644531 8.609375 2.644531 6.410156 C 2.644531 4.210938 4.417969 2.441406 6.621094 2.441406 Z M 6.621094 2.441406 "/>
<path style=" stroke:none;fill-rule:nonzero;fill:url(#linear3);" d="M 10.34375 11.015625 L 11.277344 10.082031 C 11.539062 9.824219 11.957031 9.824219 12.214844 10.082031 L 14.085938 11.953125 C 14.34375 12.210938 14.34375 12.628906 14.085938 12.886719 L 13.148438 13.824219 C 12.890625 14.082031 12.472656 14.082031 12.214844 13.824219 L 10.34375 11.953125 C 10.085938 11.695312 10.085938 11.273438 10.34375 11.015625 Z M 10.34375 11.015625 "/>
<path style=" stroke:none;fill-rule:nonzero;fill:rgb(100%,100%,100%);fill-opacity:0.392157;" d="M 6.613281 1.449219 C 3.867188 1.449219 1.652344 3.660156 1.652344 6.410156 C 1.652344 6.4375 1.652344 6.464844 1.65625 6.492188 C 1.699219 3.78125 3.894531 1.613281 6.613281 1.613281 C 9.335938 1.613281 11.53125 3.78125 11.574219 6.492188 C 11.578125 6.464844 11.578125 6.4375 11.578125 6.410156 C 11.578125 3.660156 9.363281 1.449219 6.613281 1.449219 Z M 2.648438 6.492188 C 2.644531 6.519531 2.644531 6.546875 2.644531 6.574219 C 2.644531 8.773438 4.417969 10.542969 6.621094 10.542969 C 8.820312 10.542969 10.59375 8.773438 10.59375 6.574219 C 10.59375 6.546875 10.59375 6.519531 10.59375 6.492188 C 10.546875 8.652344 8.792969 10.378906 6.621094 10.378906 C 4.445312 10.378906 2.691406 8.652344 2.648438 6.492188 Z M 10.65625 9.460938 C 10.632812 9.492188 10.609375 9.523438 10.585938 9.554688 L 11.195312 10.164062 L 11.277344 10.082031 Z M 10.65625 9.460938 "/>
<path style=" stroke:none;fill-rule:nonzero;fill:rgb(0%,0%,0%);fill-opacity:0.235294;" d="M 6.621094 2.320312 C 4.417969 2.320312 2.644531 4.089844 2.644531 6.289062 C 2.644531 6.308594 2.644531 6.328125 2.648438 6.351562 C 2.679688 4.179688 4.4375 2.441406 6.621094 2.441406 C 8.800781 2.441406 10.5625 4.179688 10.59375 6.351562 C 10.59375 6.328125 10.59375 6.308594 10.59375 6.289062 C 10.59375 4.089844 8.820312 2.320312 6.621094 2.320312 Z M 11.578125 6.347656 C 11.5625 7.445312 11.199219 8.457031 10.585938 9.269531 L 10.636719 9.320312 C 11.230469 8.503906 11.578125 7.5 11.578125 6.410156 C 11.578125 6.390625 11.578125 6.371094 11.578125 6.347656 Z M 1.652344 6.351562 C 1.652344 6.371094 1.652344 6.390625 1.652344 6.410156 C 1.652344 9.15625 3.867188 11.371094 6.613281 11.371094 C 7.765625 11.371094 8.820312 10.984375 9.660156 10.332031 L 10.34375 11.015625 L 11.277344 10.082031 L 11.21875 10.023438 L 10.34375 10.898438 L 9.660156 10.214844 C 8.820312 10.863281 7.765625 11.25 6.613281 11.25 C 3.886719 11.25 1.6875 9.070312 1.652344 6.351562 Z M 1.652344 6.351562 "/>
<path style=" stroke:none;fill-rule:nonzero;fill:rgb(12.941177%,12.941177%,12.941177%);fill-opacity:1;" d="M 6.613281 1.402344 C 3.839844 1.402344 1.605469 3.636719 1.605469 6.410156 C 1.605469 9.183594 3.839844 11.417969 6.613281 11.417969 C 7.761719 11.417969 8.8125 11.035156 9.652344 10.394531 L 10.277344 11.019531 C 10.289062 11.007812 10.300781 10.996094 10.308594 10.984375 L 10.34375 10.949219 L 9.691406 10.300781 C 9.675781 10.28125 9.648438 10.28125 9.628906 10.296875 C 8.800781 10.941406 7.753906 11.324219 6.613281 11.324219 C 3.890625 11.324219 1.699219 9.132812 1.699219 6.410156 C 1.699219 3.6875 3.890625 1.496094 6.613281 1.496094 C 9.339844 1.496094 11.53125 3.6875 11.53125 6.410156 C 11.53125 7.519531 11.164062 8.539062 10.550781 9.363281 C 10.535156 9.378906 10.539062 9.40625 10.554688 9.421875 L 11.210938 10.082031 L 11.246094 10.046875 C 11.257812 10.039062 11.269531 10.027344 11.28125 10.015625 L 10.648438 9.382812 C 11.261719 8.554688 11.625 7.523438 11.625 6.410156 C 11.625 3.636719 9.390625 1.402344 6.613281 1.402344 Z M 6.621094 2.394531 C 4.394531 2.394531 2.597656 4.183594 2.597656 6.410156 C 2.597656 8.632812 4.394531 10.425781 6.621094 10.425781 C 8.847656 10.425781 10.640625 8.632812 10.640625 6.410156 C 10.640625 4.183594 8.847656 2.394531 6.621094 2.394531 Z M 6.621094 2.488281 C 8.796875 2.488281 10.546875 4.234375 10.546875 6.410156 C 10.546875 8.582031 8.796875 10.332031 6.621094 10.332031 C 4.445312 10.332031 2.691406 8.582031 2.691406 6.410156 C 2.691406 4.234375 4.445312 2.488281 6.621094 2.488281 Z M 6.621094 2.488281 "/>
<path style=" stroke:none;fill-rule:nonzero;fill:rgb(100%,100%,100%);fill-opacity:0.392157;" d="M 11.746094 9.886719 C 11.578125 9.886719 11.410156 9.953125 11.277344 10.082031 L 10.34375 11.015625 C 10.195312 11.164062 10.132812 11.363281 10.152344 11.558594 C 10.167969 11.414062 10.234375 11.273438 10.34375 11.160156 L 11.277344 10.226562 C 11.539062 9.96875 11.957031 9.96875 12.214844 10.226562 L 14.085938 12.097656 C 14.195312 12.207031 14.261719 12.347656 14.277344 12.492188 C 14.296875 12.300781 14.234375 12.101562 14.085938 11.953125 L 12.214844 10.082031 C 12.085938 9.953125 11.914062 9.886719 11.746094 9.886719 Z M 11.746094 9.886719 "/>
<path style=" stroke:none;fill-rule:nonzero;fill:rgb(0%,0%,0%);fill-opacity:0.235294;" d="M 12.683594 14.03125 C 12.851562 14.03125 13.019531 13.96875 13.148438 13.839844 L 14.085938 12.902344 C 14.234375 12.753906 14.296875 12.554688 14.277344 12.363281 C 14.261719 12.507812 14.195312 12.648438 14.085938 12.757812 L 13.148438 13.695312 C 12.890625 13.953125 12.472656 13.953125 12.214844 13.695312 L 10.34375 11.824219 C 10.234375 11.710938 10.167969 11.570312 10.152344 11.425781 C 10.132812 11.621094 10.195312 11.820312 10.34375 11.96875 L 12.214844 13.839844 C 12.34375 13.96875 12.511719 14.03125 12.683594 14.03125 Z M 12.683594 14.03125 "/>
<path style=" stroke:none;fill-rule:nonzero;fill:rgb(12.941177%,12.941177%,12.941177%);fill-opacity:1;" d="M 10.308594 10.984375 C 10.035156 11.261719 10.035156 11.707031 10.308594 11.984375 L 12.179688 13.855469 C 12.457031 14.132812 12.90625 14.132812 13.183594 13.855469 L 14.117188 12.921875 C 14.394531 12.644531 14.394531 12.195312 14.117188 11.917969 L 12.246094 10.046875 C 11.972656 9.769531 11.523438 9.769531 11.246094 10.046875 Z M 10.375 11.050781 L 11.3125 10.113281 C 11.554688 9.875 11.941406 9.875 12.179688 10.113281 L 14.050781 11.984375 C 14.292969 12.226562 14.292969 12.613281 14.050781 12.855469 L 13.117188 13.789062 C 12.875 14.03125 12.488281 14.03125 12.246094 13.789062 L 10.375 11.917969 C 10.136719 11.679688 10.136719 11.292969 10.375 11.050781 Z M 10.375 11.050781 "/>
</g>
</svg>

<svg xmlns="http://www.w3.org/2000/svg" width="16pt" height="16pt" viewBox="0 0 16 16"><defs><linearGradient id="a" gradientUnits="userSpaceOnUse" x1="190.49" y1="105.008" x2="190.49" y2="-148.992" gradientTransform="matrix(.03125 0 0 .03125 .662 7.097)"><stop offset="0" stop-color="#01579b" stop-opacity=".392"/><stop offset="1" stop-color="#0277bd" stop-opacity=".392"/></linearGradient><linearGradient id="b" gradientUnits="userSpaceOnUse" x1="190.5" y1="127.667" x2="190.485" y2="-88.672" gradientTransform="matrix(.0201 0 0 .0201 2.788 6.868)"><stop offset="0" stop-color="#f5f5f5" stop-opacity=".392"/><stop offset="1" stop-color="#fafafa" stop-opacity=".392"/></linearGradient><radialGradient id="c" gradientUnits="userSpaceOnUse" cx="450.909" cy="189.579" fx="450.909" fy="189.579" r="21.167" gradientTransform="matrix(0 -.03907 -.07032 0 25.9 31.798)"><stop offset="0" stop-opacity=".314"/><stop offset=".222" stop-opacity=".275"/><stop offset="1" stop-opacity="0"/></radialGradient><radialGradient id="d" gradientUnits="userSpaceOnUse" cx="450.909" cy="189.579" fx="450.909" fy="189.579" r="21.167" gradientTransform="matrix(0 .03907 .07032 0 -.597 -3.764)"><stop offset="0" stop-opacity=".314"/><stop offset=".222" stop-opacity=".275"/><stop offset="1" stop-opacity="0"/></radialGradient><radialGradient id="e" gradientUnits="userSpaceOnUse" cx="450.909" cy="189.579" fx="450.909" fy="189.579" r="21.167" gradientTransform="matrix(0 -.03907 .07032 0 -.597 31.798)"><stop offset="0" stop-opacity=".314"/><stop offset=".222" stop-opacity=".275"/><stop offset="1" stop-opacity="0"/></radialGradient><radialGradient id="f" gradientUnits="userSpaceOnUse" cx="450.909" cy="189.579" fx="450.909" fy="189.579" r="21.167" gradientTransform="matrix(0 .03907 -.07032 0 25.9 -3.764)"><stop offset="0" stop-opacity=".314"/><stop offset=".222" stop-opacity=".275"/><stop offset="1" stop-opacity="0"/></radialGradient><linearGradient id="g" gradientUnits="userSpaceOnUse" x1="255.323" y1="233.5" x2="255.323" y2="254.667" gradientTransform="matrix(.00668 0 0 .03125 8.961 6.72)"><stop offset="0" stop-opacity=".275"/><stop offset="1" stop-opacity="0"/></linearGradient><linearGradient id="h" gradientUnits="userSpaceOnUse" x1="192.737" y1="165.094" x2="477.111" y2="-145.133" gradientTransform="matrix(.0221 -.0221 .02026 .02026 1.988 14.932)"><stop offset="0" stop-color="#424242"/><stop offset="1" stop-color="#616161"/></linearGradient><linearGradient id="i" gradientUnits="userSpaceOnUse" x1="257.64" y1="224.724" x2="354.926" y2="127.438" gradientTransform="matrix(.0221 -.0221 .0221 .0221 1.909 14.744)"><stop offset="0" stop-color="#8d6e63"/><stop offset="1" stop-color="#a1887f"/></linearGradient></defs><path d="M6.617 1.824a4.632 4.632 0 0 1 0 9.262 4.632 4.632 0 1 1 0-9.262zm0 0" fill="url(#a)"/><path d="M9.262 5.086v.047A3.628 3.628 0 0 1 5.625 8.77c-.371 0-.727-.051-1.063-.153a2.982 2.982 0 0 0 2.055.817 2.97 2.97 0 0 0 2.977-2.977c0-.496-.121-.96-.332-1.371zm0 0" fill="url(#b)"/><path d="M12.734 14.016h1.325v-.66h-1.325zm0 0" fill="url(#c)"/><path d="M12.57 14.016h-1.324v.664h1.324zm0 0" fill="url(#d)"/><path d="M12.57 14.016h-1.324v-.66h1.324zm0 0" fill="url(#e)"/><path d="M12.734 14.016h1.325v.664h-1.325zm0 0" fill="url(#f)"/><path d="M12.57 14.016h.164v.664h-.164zm0 0" fill="url(#g)"/><path d="M6.613 1.45a4.95 4.95 0 0 0-4.96 4.96 4.953 4.953 0 0 0 4.96 4.961 4.942 4.942 0 0 0 3.047-1.039l.684.684.933-.934-.691-.691c.625-.829.992-1.86.992-2.98 0-2.75-2.215-4.962-4.965-4.962zm.008.991c2.2 0 3.973 1.77 3.973 3.97 0 2.198-1.774 3.968-3.973 3.968A3.964 3.964 0 0 1 2.645 6.41c0-2.2 1.773-3.969 3.976-3.969zm0 0" fill="url(#h)"/><path d="M10.344 11.016l.933-.934a.665.665 0 0 1 .938 0l1.87 1.871a.66.66 0 0 1 0 .934l-.937.937a.66.66 0 0 1-.933 0l-1.871-1.87a.665.665 0 0 1 0-.938zm0 0" fill="url(#i)"/><path d="M6.613 1.45a4.95 4.95 0 0 0-4.96 4.96c0 .027 0 .055.003.082a4.948 4.948 0 0 1 4.957-4.879 4.948 4.948 0 0 1 4.961 4.88c.004-.028.004-.056.004-.083 0-2.75-2.215-4.96-4.965-4.96zM2.648 6.491c-.003.028-.003.055-.003.082 0 2.2 1.773 3.969 3.976 3.969 2.2 0 3.973-1.77 3.973-3.969v-.082A3.966 3.966 0 0 1 6.62 10.38a3.961 3.961 0 0 1-3.973-3.887zm8.008 2.969l-.07.094.61.61.081-.083zm0 0" fill="#fff" fill-opacity=".392"/><path d="M6.621 2.32a3.964 3.964 0 0 0-3.976 3.97c0 .019 0 .038.003.062a3.96 3.96 0 0 1 3.973-3.91 3.963 3.963 0 0 1 3.973 3.91v-.063c0-2.2-1.774-3.969-3.973-3.969zm4.957 4.028a4.948 4.948 0 0 1-.992 2.922l.05.05c.594-.816.942-1.82.942-2.91v-.062zm-9.926.004v.058a4.953 4.953 0 0 0 4.961 4.961 4.942 4.942 0 0 0 3.047-1.039l.684.684.933-.934-.058-.059-.875.875-.684-.683a4.963 4.963 0 0 1-3.047 1.035 4.952 4.952 0 0 1-4.96-4.898zm0 0" fill-opacity=".235"/><path d="M6.613 1.402A4.998 4.998 0 0 0 1.605 6.41a4.998 4.998 0 0 0 5.008 5.008c1.149 0 2.2-.383 3.04-1.023l.624.625c.012-.012.024-.024.032-.036l.035-.035-.653-.648c-.015-.02-.043-.02-.062-.004a4.89 4.89 0 0 1-3.016 1.027A4.903 4.903 0 0 1 1.7 6.41a4.903 4.903 0 0 1 4.914-4.914 4.904 4.904 0 0 1 4.918 4.914c0 1.11-.367 2.13-.98 2.953-.016.016-.012.043.004.059l.656.66.035-.035a.253.253 0 0 0 .035-.031l-.633-.633c.614-.828.977-1.86.977-2.973a4.999 4.999 0 0 0-5.012-5.008zm.008.993A4.011 4.011 0 0 0 2.598 6.41a4.014 4.014 0 0 0 4.023 4.016 4.01 4.01 0 0 0 4.02-4.016 4.008 4.008 0 0 0-4.02-4.015zm0 .093a3.913 3.913 0 0 1 3.926 3.922 3.915 3.915 0 0 1-3.926 3.922 3.919 3.919 0 0 1-3.93-3.922 3.916 3.916 0 0 1 3.93-3.922zm0 0" fill="#212121"/><path d="M11.746 9.887a.673.673 0 0 0-.469.195l-.933.934a.667.667 0 0 0-.192.543.682.682 0 0 1 .192-.399l.933-.933a.665.665 0 0 1 .938 0l1.87 1.87c.11.11.177.25.192.395a.664.664 0 0 0-.191-.539l-1.871-1.871a.666.666 0 0 0-.469-.195zm0 0" fill="#fff" fill-opacity=".392"/><path d="M12.684 14.031a.653.653 0 0 0 .464-.191l.938-.938a.664.664 0 0 0 .191-.539.661.661 0 0 1-.191.395l-.938.937a.66.66 0 0 1-.933 0l-1.871-1.87a.682.682 0 0 1-.192-.4.667.667 0 0 0 .192.544l1.87 1.87a.656.656 0 0 0 .47.192zm0 0" fill-opacity=".235"/><path d="M10.309 10.984a.712.712 0 0 0 0 1l1.87 1.871a.71.71 0 0 0 1.005 0l.933-.933a.71.71 0 0 0 0-1.004l-1.87-1.871a.705.705 0 0 0-1 0zm.066.067l.938-.938a.615.615 0 0 1 .867 0l1.87 1.871a.613.613 0 0 1 0 .871l-.933.934a.613.613 0 0 1-.87 0l-1.872-1.871a.615.615 0 0 1 0-.867zm0 0" fill="#212121"/></svg>
